X: 1
T: Ashokan Farewell
M: 3/4
L: 1/8
R: waltz
K: Dmaj
Ac|d3 cBA|F4 EF|G3 FED|B,2D2B,2|
A,2D2F2|A2d2f2|f3gf2|e4:|
FG|A3FD2|d4A2|B3cd2|AF F2D2|
A3ED2|B,3G,G,2|G,6|A4 FE|
D2F2A2|=c4d2|B3cd2|AF F2D2|
A,2D2F2|A2d2F2|E3DC2|D4:|
